X:661
T:Garrett Barry's
R:Jig
S:Xerox of uncertain origin, memory
Z:Transcription, arrangement, chords:Mike Long
M:6/8
L:1/8
K:G
D|\
"D"DEF GFG|"Am"AGE "C"c2A|"D"dcA d2e|"D"fed "C"cAG|\
"D"F2F GFG|"Am"AGE cde|"C"dcA "G"GEA|"D"~D2D D2:|
|:A|\
"D"dcA d2e|"D"fed "Am"e2d|"C"cAB c2d|"Am"efd "C"ecA|\
"D"dcA d2e|"D"fed "Am"e/2f/2ge|"C"dcA "G"GEA|"D"~D2D D2:|
